X:3063
T:Det halve k\aede
C:anon.
O:Denmark
F:http://abc.musicaviva.com/tunes/denmark/det-halve-kaede.abc
M:2/4
L:1/16
K:G
"G"G2G2 BGBd|"D7"F2F2 AFAc|"G"G2G2 BGBd|"D7"dcAF "G"G4|
"G"B2d2 d2(cB)|"Am"c2e2e4|"D7"A2c2 c2(BA)|"G"B2d2 d4|
"G"G2G2 BGBd|"D7"F2F2 AFAc|"G"G2G2 BGBd|"D7"dcAF "G"G4|]
W:
W:
W:  From Musica Viva - http://www.musicaviva.com
W:  the Internet center for free sheet music downloads.
